priv/static/svgs/icons_new/other-rocket.svg

<svg width="32" height="32" viewBox="0 0 32 32" fill="none" xmlns="http://www.w3.org/2000/svg">
<path d="M8.10659 20.2192C8.30186 20.0239 8.30186 19.7073 8.10659 19.5121C7.91133 19.3168 7.59475 19.3168 7.39949 19.5121L8.10659 20.2192ZM5.68084 21.2307C5.48558 21.426 5.48558 21.7426 5.68084 21.9378C5.8761 22.1331 6.19269 22.1331 6.38795 21.9378L5.68084 21.2307ZM9.79726 21.9098C9.99252 21.7146 9.99252 21.398 9.79726 21.2027C9.602 21.0075 9.28541 21.0075 9.09015 21.2027L9.79726 21.9098ZM5.0973 25.1956C4.90204 25.3908 4.90204 25.7074 5.0973 25.9027C5.29256 26.098 5.60915 26.098 5.80441 25.9027L5.0973 25.1956ZM11.4879 23.6005C11.6832 23.4052 11.6832 23.0887 11.4879 22.8934C11.2927 22.6981 10.9761 22.6981 10.7808 22.8934L11.4879 23.6005ZM8.98224 24.692C8.78698 24.8872 8.78698 25.2038 8.98224 25.3991C9.1775 25.5944 9.49408 25.5944 9.68934 25.3991L8.98224 24.692ZM18.7084 10.1013V9.60132V10.1013ZM25.8388 5.16123L26.3235 5.03844C26.2782 4.85972 26.1382 4.72041 25.9593 4.67597L25.8388 5.16123ZM9.01604 18.2949L8.57505 18.0592C8.47127 18.2534 8.50678 18.4927 8.66249 18.6484L9.01604 18.2949ZM12.7131 21.9919L12.3596 22.3455C12.5154 22.5013 12.7547 22.5367 12.949 22.4328L12.7131 21.9919ZM10.9831 12.1204C11.2573 12.087 11.4523 11.8376 11.4189 11.5635C11.3854 11.2894 11.136 11.0943 10.8619 11.1278L10.9831 12.1204ZM4 16.3844L3.58503 16.1055C3.46005 16.2914 3.47401 16.5378 3.6192 16.7084C3.76438 16.879 4.00535 16.9322 4.20889 16.8386L4 16.3844ZM7.88124 16.684C8.1527 16.7346 8.41379 16.5556 8.4644 16.2841C8.515 16.0127 8.33596 15.7516 8.0645 15.701L7.88124 16.684ZM19.8803 20.1369C19.9132 19.8628 19.7175 19.6139 19.4433 19.581C19.1692 19.5482 18.9203 19.7438 18.8874 20.018L19.8803 20.1369ZM14.6276 27L14.1726 26.7926C14.0799 26.9962 14.1336 27.2366 14.3042 27.3813C14.4749 27.526 14.7209 27.5398 14.9065 27.415L14.6276 27ZM15.3111 22.9361C15.2608 22.6646 15 22.4852 14.7284 22.5355C14.4569 22.5858 14.2776 22.8466 14.3278 23.1182L15.3111 22.9361ZM7.39949 19.5121L5.68084 21.2307L6.38795 21.9378L8.10659 20.2192L7.39949 19.5121ZM9.09015 21.2027L5.0973 25.1956L5.80441 25.9027L9.79726 21.9098L9.09015 21.2027ZM10.7808 22.8934L8.98224 24.692L9.68934 25.3991L11.4879 23.6005L10.7808 22.8934ZM18.7084 10.6013C19.0427 10.6013 19.3695 10.7005 19.6475 10.8862L20.203 10.0547C19.7606 9.75911 19.2405 9.60132 18.7084 9.60132V10.6013ZM19.6475 10.8862C19.9254 11.0719 20.1421 11.3359 20.27 11.6448L21.1939 11.2621C20.9903 10.7705 20.6454 10.3503 20.203 10.0547L19.6475 10.8862ZM20.27 11.6448C20.3979 11.9536 20.4314 12.2935 20.3662 12.6214L21.347 12.8164C21.4508 12.2946 21.3975 11.7537 21.1939 11.2621L20.27 11.6448ZM20.3662 12.6214C20.301 12.9492 20.14 13.2504 19.9036 13.4868L20.6107 14.1939C20.9869 13.8177 21.2432 13.3383 21.347 12.8164L20.3662 12.6214ZM19.9036 13.4868C19.6672 13.7232 19.366 13.8842 19.0382 13.9494L19.2332 14.9302C19.7551 14.8264 20.2345 14.5701 20.6107 14.1939L19.9036 13.4868ZM19.0382 13.9494C18.7103 14.0146 18.3704 13.9811 18.0616 13.8532L17.6789 14.7771C18.1705 14.9807 18.7114 15.034 19.2332 14.9302L19.0382 13.9494ZM18.0616 13.8532C17.7527 13.7253 17.4887 13.5086 17.303 13.2307L16.4715 13.7862C16.7671 14.2286 17.1873 14.5735 17.6789 14.7771L18.0616 13.8532ZM17.303 13.2307C17.1173 12.9527 17.0181 12.6259 17.0181 12.2916H16.0181C16.0181 12.8237 16.1759 13.3438 16.4715 13.7862L17.303 13.2307ZM17.0181 12.2916C17.0181 11.8433 17.1962 11.4134 17.5132 11.0964L16.8061 10.3893C16.3016 10.8938 16.0181 11.5781 16.0181 12.2916H17.0181ZM17.5132 11.0964C17.8302 10.7794 18.2601 10.6013 18.7084 10.6013V9.60132C17.9949 9.60132 17.3106 9.88477 16.8061 10.3893L17.5132 11.0964ZM19.8696 6.3701L24.6299 11.1303L25.337 10.4232L20.5768 5.663L19.8696 6.3701ZM25.9593 4.67597C25.2517 4.50021 22.8827 4.11033 19.6855 5.65898C16.4934 7.20518 12.5299 10.6575 8.57505 18.0592L9.45704 18.5305C13.344 11.2558 17.1724 7.98742 20.1214 6.55896C23.0654 5.13296 25.1868 5.51448 25.7182 5.64648L25.9593 4.67597ZM8.66249 18.6484L12.3596 22.3455L13.0667 21.6384L9.3696 17.9413L8.66249 18.6484ZM12.949 22.4328C20.3747 18.4599 23.8244 14.4842 25.362 11.2889C26.9021 8.0885 26.4977 5.72603 26.3235 5.03844L25.3541 5.28401C25.4837 5.79547 25.8785 7.90947 24.461 10.8552C23.0409 13.8061 19.7759 17.6462 12.4773 21.5511L12.949 22.4328ZM10.8619 11.1278C8.9981 11.3554 6.12406 12.328 3.58503 16.1055L4.41497 16.6633C6.77607 13.1505 9.37772 12.3165 10.9831 12.1204L10.8619 11.1278ZM4 16.3844C4.20889 16.8386 4.20869 16.8387 4.2085 16.8388C4.20844 16.8389 4.20825 16.8389 4.20813 16.839C4.2079 16.8391 4.20768 16.8392 4.20749 16.8393C4.20711 16.8395 4.20682 16.8396 4.20661 16.8397C4.20619 16.8399 4.20611 16.8399 4.20638 16.8398C4.20691 16.8396 4.20881 16.8387 4.21206 16.8373C4.21857 16.8346 4.2305 16.8296 4.24777 16.8229C4.2823 16.8095 4.33815 16.7891 4.41463 16.7652C4.5676 16.7172 4.80307 16.6548 5.11568 16.6055C5.74008 16.5068 6.67579 16.4593 7.88124 16.684L8.0645 15.701C6.73994 15.4541 5.68922 15.5025 4.95968 15.6177C4.59533 15.6753 4.31196 15.7493 4.11532 15.811C4.01701 15.8418 3.94037 15.8696 3.88611 15.8906C3.85898 15.9012 3.83744 15.91 3.82158 15.9167C3.81365 15.9201 3.80714 15.9229 3.80205 15.9252C3.79951 15.9263 3.79733 15.9273 3.7955 15.9281C3.79459 15.9285 3.79377 15.9289 3.79304 15.9292C3.79267 15.9294 3.79232 15.9295 3.792 15.9297C3.79184 15.9298 3.79162 15.9299 3.79154 15.9299C3.79132 15.93 3.79111 15.9301 4 16.3844ZM18.8874 20.018C18.6952 21.6224 17.8616 24.2238 14.3487 26.585L14.9065 27.415C18.6839 24.876 19.6569 22.0018 19.8803 20.1369L18.8874 20.018ZM14.6276 27C15.0826 27.2074 15.0827 27.2072 15.0828 27.2069C15.0828 27.2069 15.0829 27.2066 15.083 27.2065C15.0831 27.2062 15.0833 27.2058 15.0835 27.2055C15.0838 27.2047 15.0841 27.2039 15.0846 27.203C15.0854 27.2012 15.0863 27.199 15.0874 27.1965C15.0897 27.1914 15.0925 27.1849 15.0958 27.177C15.1025 27.1611 15.1113 27.1396 15.1217 27.1124C15.1426 27.0582 15.1701 26.9815 15.2007 26.8831C15.262 26.6863 15.3356 26.4028 15.3928 26.0384C15.5074 25.3088 15.5559 24.2585 15.3111 22.9361L14.3278 23.1182C14.5507 24.3218 14.5032 25.2579 14.405 25.8832C14.3558 26.1963 14.2937 26.4324 14.246 26.5858C14.2221 26.6626 14.2017 26.7186 14.1884 26.7534C14.1817 26.7707 14.1768 26.7827 14.174 26.7893C14.1726 26.7926 14.1718 26.7945 14.1715 26.7951C14.1714 26.7954 14.1714 26.7953 14.1716 26.7949C14.1717 26.7947 14.1718 26.7944 14.172 26.794C14.1721 26.7938 14.1722 26.7936 14.1723 26.7934C14.1724 26.7933 14.1724 26.7931 14.1725 26.793C14.1726 26.7928 14.1726 26.7926 14.6276 27Z" fill="black"/>
</svg>

<svg width="32" height="32" viewBox="0 0 32 32" fill="none" xmlns="http://www.w3.org/2000/svg">
  <symbol id="item" viewBox="0 0 32 32"  fill="none">
    <path d="M8.107 20.22a.5.5 0 1 0-.708-.708l.708.707ZM5.68 21.23a.5.5 0 1 0 .707.708l-.707-.707Zm4.116.68a.5.5 0 1 0-.707-.707l.707.707Zm-4.7 3.286a.5.5 0 1 0 .707.707l-.707-.707Zm6.39-1.596a.5.5 0 1 0-.706-.707l.707.707Zm-2.505 1.092a.5.5 0 0 0 .707.707l-.707-.707Zm9.726-14.59v-.5.5Zm7.13-4.94.485-.124a.5.5 0 0 0-.364-.362l-.12.485ZM9.017 18.294l-.441-.236a.5.5 0 0 0 .087.59l.354-.354Zm3.697 3.697-.353.354a.5.5 0 0 0 .589.087l-.236-.441Zm-1.73-9.872a.5.5 0 1 0-.121-.992l.121.992ZM4 16.384l-.415-.279a.5.5 0 0 0 .624.734L4 16.384Zm3.881.3a.5.5 0 1 0 .184-.983l-.184.983Zm12 3.453a.5.5 0 0 0-.994-.119l.993.119ZM14.627 27l-.455-.207a.5.5 0 0 0 .733.622L14.628 27Zm.683-4.064a.5.5 0 1 0-.983.182l.983-.182ZM7.4 19.512l-1.718 1.719.707.707 1.719-1.719-.708-.707Zm1.691 1.69-3.993 3.994.707.707 3.993-3.993-.707-.707Zm1.69 1.691-1.798 1.799.707.707 1.799-1.799-.707-.707Zm7.928-12.292c.335 0 .662.1.94.285l.555-.831a2.69 2.69 0 0 0-1.495-.454v1Zm.94.285c.277.186.494.45.622.759l.924-.383a2.69 2.69 0 0 0-.991-1.207l-.555.831Zm.622.759c.128.309.161.649.096.976l.981.195a2.69 2.69 0 0 0-.153-1.554l-.924.383Zm.096.976a1.69 1.69 0 0 1-.462.866l.707.707a2.69 2.69 0 0 0 .736-1.378l-.98-.195Zm-.462.866a1.69 1.69 0 0 1-.866.462l.195.981a2.69 2.69 0 0 0 1.378-.736l-.707-.707Zm-.866.462a1.69 1.69 0 0 1-.976-.096l-.383.924a2.69 2.69 0 0 0 1.554.153l-.195-.98Zm-.976-.096a1.69 1.69 0 0 1-.759-.622l-.832.555a2.69 2.69 0 0 0 1.208.991l.383-.924Zm-.759-.622a1.69 1.69 0 0 1-.285-.94h-1c0 .533.158 1.053.453 1.495l.832-.555Zm-.285-.94c0-.448.178-.878.495-1.195l-.707-.707a2.69 2.69 0 0 0-.788 1.903h1Zm.495-1.195a1.69 1.69 0 0 1 1.195-.495v-1a2.69 2.69 0 0 0-1.902.788l.707.707ZM19.87 6.37l4.76 4.76.707-.707-4.76-4.76-.707.707Zm6.09-1.694c-.708-.176-3.077-.566-6.274.983-3.193 1.546-7.156 4.999-11.111 12.4l.882.471c3.887-7.274 7.715-10.543 10.664-11.971 2.944-1.426 5.066-1.045 5.597-.913l.241-.97ZM8.661 18.648l3.698 3.698.707-.708-3.697-3.697-.708.707Zm4.287 3.785c7.426-3.973 10.875-7.949 12.413-11.144 1.54-3.2 1.136-5.563.962-6.25l-.97.245c.13.511.524 2.625-.893 5.571-1.42 2.951-4.685 6.791-11.984 10.696l.472.882Zm-2.087-11.305c-1.864.227-4.738 1.2-7.277 4.977l.83.558c2.361-3.513 4.963-4.347 6.568-4.543l-.121-.992ZM4 16.384l.208.455h-.001l.005-.002.036-.014c.034-.014.09-.034.167-.058.153-.048.388-.11.7-.16.625-.098 1.56-.146 2.766.079l.184-.983c-1.325-.247-2.376-.199-3.105-.083a5.926 5.926 0 0 0-.845.193 3.707 3.707 0 0 0-.313.114l-.006.003-.003.001h-.001l.208.455Zm14.887 3.634c-.192 1.604-1.025 4.206-4.538 6.567l.557.83c3.778-2.539 4.75-5.413 4.974-7.278l-.993-.119ZM14.627 27l.456.207v-.002l.002-.002.002-.006a.785.785 0 0 0 .035-.085c.02-.054.048-.13.079-.229.061-.197.135-.48.192-.845.114-.73.163-1.78-.082-3.102l-.983.182c.223 1.204.175 2.14.077 2.765-.05.313-.111.55-.159.703a2.791 2.791 0 0 1-.072.203l-.002.006v-.002l.456.207Z" fill="currentColor"/>
  </symbol>
</svg>
